SVG_Azure_All/Preview Feature.svg

<?xml version="1.0" encoding="UTF-8" standalone="no"?>
<!-- Generated by Microsoft Visio, SVG Export Preview Feature.svg Page-1 -->

<svg
   xmlns:dc="http://purl.org/dc/elements/1.1/"
   xmlns:cc="http://creativecommons.org/ns#"
   xmlns:rdf="http://www.w3.org/1999/02/22-rdf-syntax-ns#"
   xmlns:svg="http://www.w3.org/2000/svg"
   xmlns="http://www.w3.org/2000/svg"
   xmlns:sodipodi="http://sodipodi.sourceforge.net/DTD/sodipodi-0.dtd"
   xmlns:inkscape="http://www.inkscape.org/namespaces/inkscape"
   width="0.78735995in"
   height="0.78742737in"
   viewBox="0 0 56.689825 56.695081"
   xml:space="preserve"
   class="st6"
   version="1.1"
   id="svg69"
   sodipodi:docname="Preview Feature.svg"
   style="font-size:12px;overflow:visible;color-interpolation-filters:sRGB;fill:none;fill-rule:evenodd;stroke-linecap:square;stroke-miterlimit:3"
   inkscape:version="0.92.5 (2060ec1f9f, 2020-04-08)"><metadata
   id="metadata73"><rdf:RDF><cc:Work
       rdf:about=""><dc:format>image/svg+xml</dc:format><dc:type
         rdf:resource="http://purl.org/dc/dcmitype/StillImage" /></cc:Work></rdf:RDF></metadata><sodipodi:namedview
   pagecolor="#ffffff"
   bordercolor="#666666"
   borderopacity="1"
   objecttolerance="10"
   gridtolerance="10"
   guidetolerance="10"
   inkscape:pageopacity="0"
   inkscape:pageshadow="2"
   inkscape:window-width="640"
   inkscape:window-height="480"
   id="namedview71"
   showgrid="false"
   inkscape:zoom="1.4193119"
   inkscape:cx="37.795128"
   inkscape:cy="37.786193"
   inkscape:window-x="0"
   inkscape:window-y="0"
   inkscape:window-maximized="0"
   inkscape:current-layer="svg69" />
	<style
   type="text/css"
   id="style2">
	<![CDATA[
		.st1 {fill:#5e9624;stroke:none;stroke-linecap:butt;stroke-width:34}
		.st2 {fill:url(#grad0-8);stroke:none;stroke-linecap:butt;stroke-width:34}
		.st3 {fill:url(#grad0-12);stroke:none;stroke-linecap:butt;stroke-width:34}
		.st4 {fill:url(#grad0-16);stroke:none;stroke-linecap:butt;stroke-width:34}
		.st5 {fill:#86d633;stroke:none;stroke-linecap:butt;stroke-width:34}
		.st6 {fill:none;fill-rule:evenodd;font-size:12px;overflow:visible;stroke-linecap:square;stroke-miterlimit:3}
	]]>
	</style>

	<defs
   id="Patterns_And_Gradients">
		<linearGradient
   id="grad0-8"
   x1="-9.552185e-09"
   y1="99.33"
   x2="25.38"
   y2="99.33"
   gradientUnits="userSpaceOnUse">
			<stop
   offset="0"
   stop-color="#86d633"
   stop-opacity="1"
   id="stop4" />
			<stop
   offset="1"
   stop-color="#76bc2d"
   stop-opacity="1"
   id="stop6" />
		</linearGradient>
		<linearGradient
   id="grad0-12"
   x1="-9.552185e-09"
   y1="99.33"
   x2="25.38"
   y2="99.33"
   gradientUnits="userSpaceOnUse">
			<stop
   offset="0"
   stop-color="#5ea0ef"
   stop-opacity="1"
   id="stop9" />
			<stop
   offset="0.18"
   stop-color="#589eed"
   stop-opacity="1"
   id="stop11" />
			<stop
   offset="0.41"
   stop-color="#4897e9"
   stop-opacity="1"
   id="stop13" />
			<stop
   offset="0.66"
   stop-color="#2e8ce1"
   stop-opacity="1"
   id="stop15" />
			<stop
   offset="0.94"
   stop-color="#0a7cd7"
   stop-opacity="1"
   id="stop17" />
			<stop
   offset="1"
   stop-color="#0078d4"
   stop-opacity="1"
   id="stop19" />
		</linearGradient>
		<linearGradient
   id="grad0-16"
   x1="-9.552185e-09"
   y1="99.33"
   x2="25.38"
   y2="99.33"
   gradientUnits="userSpaceOnUse">
			<stop
   offset="0"
   stop-color="#198ab3"
   stop-opacity="1"
   id="stop22" />
			<stop
   offset="0.24"
   stop-color="#22a5cb"
   stop-opacity="1"
   id="stop24" />
			<stop
   offset="0.53"
   stop-color="#2bbfe2"
   stop-opacity="1"
   id="stop26" />
			<stop
   offset="0.79"
   stop-color="#30cff0"
   stop-opacity="1"
   id="stop28" />
			<stop
   offset="1"
   stop-color="#32d4f5"
   stop-opacity="1"
   id="stop30" />
		</linearGradient>
	</defs>
	<g
   id="g67"
   transform="translate(-34.000441,-33.999218)">
		<title
   id="title34">Page-1</title>
		<g
   id="group2222-1"
   transform="translate(34,-34.0157)">
			<title
   id="title36">Preview Feature</title>
			<g
   id="group2223-2">
				<title
   id="title38">Sheet.2223</title>
				<g
   id="shape2224-3"
   transform="translate(31.3134,-31.3102)">
					<title
   id="title40">Sheet.2224</title>
					<path
   d="M 12.69,124.71 A 0.944882,0.944882 0 0 1 11.745118,123.76512 10.8094,10.8094 -180 0 0 0.94,112.96 0.944882,0.944882 0 0 1 -0.004882,112.01512 0.944882,0.944882 0 0 1 0.94,111.07024 10.8094,10.8094 -180 0 0 11.74,100.27 0.944882,0.944882 0 0 1 12.684882,99.325118 0.944882,0.944882 0 0 1 13.629764,100.27 10.8094,10.8094 -180 0 0 24.43,111.07 a 0.944882,0.944882 0 1 1 0,1.88976 10.8094,10.8094 -180 0 0 -10.79,10.80024 0.944882,0.944882 0 0 1 -0.948031,0.95118 z"
   class="st1"
   id="path42"
   inkscape:connector-curvature="0"
   style="fill:#5e9624;stroke:none;stroke-width:34;stroke-linecap:butt" />
				</g>
				<g
   id="shape2225-5"
   transform="translate(0,-31.3102)">
					<title
   id="title45">Sheet.2225</title>
					<path
   d="m 0,122.82 a 1.88981,1.88981 -180 0 0 1.89,1.89 h 21.6 a 1.88981,1.88981 -180 0 0 1.89,-1.89 v -21.6 A 1.88981,1.88981 -180 0 0 23.49,99.33 H 1.89 A 1.88981,1.88981 -180 0 0 0,101.22 Z"
   class="st2"
   id="path47"
   inkscape:connector-curvature="0"
   style="fill:url(#grad0-8);stroke:none;stroke-width:34;stroke-linecap:butt" />
				</g>
				<g
   id="shape2226-9">
					<title
   id="title50">Sheet.2226</title>
					<path
   d="m 0,122.82 a 1.88981,1.88981 -180 0 0 1.89,1.89 h 21.6 a 1.88981,1.88981 -180 0 0 1.89,-1.89 v -21.6 A 1.88981,1.88981 -180 0 0 23.49,99.33 H 1.89 A 1.88981,1.88981 -180 0 0 0,101.22 Z"
   class="st3"
   id="path52"
   inkscape:connector-curvature="0"
   style="fill:url(#grad0-12);stroke:none;stroke-width:34;stroke-linecap:butt" />
				</g>
				<g
   id="shape2227-13"
   transform="translate(31.3102)">
					<title
   id="title55">Sheet.2227</title>
					<path
   d="m 0,122.82 a 1.88981,1.88981 -180 0 0 1.89,1.89 h 21.6 a 1.88981,1.88981 -180 0 0 1.89,-1.89 v -21.6 A 1.88981,1.88981 -180 0 0 23.49,99.33 H 1.89 A 1.88981,1.88981 -180 0 0 0,101.22 Z"
   class="st4"
   id="path57"
   inkscape:connector-curvature="0"
   style="fill:url(#grad0-16);stroke:none;stroke-width:34;stroke-linecap:butt" />
				</g>
				<g
   id="shape2228-17"
   transform="translate(2.96063,-2.96378)">
					<title
   id="title60">Sheet.2228</title>
					<path
   d="M 17.56,93.4 H 1.9 A 1.88976,1.88976 0 0 1 0.01,91.51 V 75.83 A 1.88976,1.88976 0 0 1 1.9,73.94 h 15.66 a 1.88976,1.88976 0 0 1 1.89,1.89 V 91.5 a 1.88976,1.88976 0 0 1 -1.89,1.9 z m 1.89,29.41 v -15.66 a 1.88976,1.88976 -180 0 0 -1.89,-1.89 H 1.89 A 1.88976,1.88976 -180 0 0 0,107.15 v 15.67 a 1.88976,1.88976 -180 0 0 1.89,1.89 h 15.67 a 1.88976,1.88976 -180 0 0 1.9,-1.9 z m 31.32,0 v -15.66 a 1.88976,1.88976 -180 0 0 -1.89,-1.89 H 33.2 a 1.88976,1.88976 -180 0 0 -1.89,1.89 v 15.67 a 1.88976,1.88976 -180 0 0 1.89,1.89 h 15.67 a 1.88976,1.88976 -180 0 0 1.9,-1.9 z"
   class="st5"
   id="path62"
   inkscape:connector-curvature="0"
   style="fill:#86d633;stroke:none;stroke-width:34;stroke-linecap:butt" />
				</g>
			</g>
		</g>
	</g>
</svg>

<?xml version="1.0" encoding="UTF-8" standalone="no"?>
<!DOCTYPE svg PUBLIC "-//W3C//DTD SVG 1.1//EN" "http://www.w3.org/Graphics/SVG/1.1/DTD/svg11.dtd">
<!-- Generated by Microsoft Visio, SVG Export Preview Feature.svg Page-1 -->
<svg xmlns="http://www.w3.org/2000/svg" xmlns:xlink="http://www.w3.org/1999/xlink" xmlns:ev="http://www.w3.org/2001/xml-events"
		width="1.73185in" height="1.73206in" viewBox="0 0 124.693 124.709" xml:space="preserve" color-interpolation-filters="sRGB"
		class="st6">
	<style type="text/css">
	<![CDATA[
		.st1 {fill:#5e9624;stroke:none;stroke-linecap:butt;stroke-width:34}
		.st2 {fill:url(#grad0-8);stroke:none;stroke-linecap:butt;stroke-width:34}
		.st3 {fill:url(#grad0-12);stroke:none;stroke-linecap:butt;stroke-width:34}
		.st4 {fill:url(#grad0-16);stroke:none;stroke-linecap:butt;stroke-width:34}
		.st5 {fill:#86d633;stroke:none;stroke-linecap:butt;stroke-width:34}
		.st6 {fill:none;fill-rule:evenodd;font-size:12px;overflow:visible;stroke-linecap:square;stroke-miterlimit:3}
	]]>
	</style>

	<defs id="Patterns_And_Gradients">
		<linearGradient id="grad0-8" x1="0" y1="0" x2="1" y2="0" gradientTransform="rotate(90 0.5 0.5)">
			<stop offset="0" stop-color="#86d633" stop-opacity="1"/>
			<stop offset="1" stop-color="#76bc2d" stop-opacity="1"/>
		</linearGradient>
		<linearGradient id="grad0-12" x1="0" y1="0" x2="1" y2="0" gradientTransform="rotate(90 0.5 0.5)">
			<stop offset="0" stop-color="#5ea0ef" stop-opacity="1"/>
			<stop offset="0.18" stop-color="#589eed" stop-opacity="1"/>
			<stop offset="0.41" stop-color="#4897e9" stop-opacity="1"/>
			<stop offset="0.66" stop-color="#2e8ce1" stop-opacity="1"/>
			<stop offset="0.94" stop-color="#0a7cd7" stop-opacity="1"/>
			<stop offset="1" stop-color="#0078d4" stop-opacity="1"/>
		</linearGradient>
		<linearGradient id="grad0-16" x1="0" y1="0" x2="1" y2="0" gradientTransform="rotate(-90 0.5 0.5)">
			<stop offset="0" stop-color="#198ab3" stop-opacity="1"/>
			<stop offset="0.24" stop-color="#22a5cb" stop-opacity="1"/>
			<stop offset="0.53" stop-color="#2bbfe2" stop-opacity="1"/>
			<stop offset="0.79" stop-color="#30cff0" stop-opacity="1"/>
			<stop offset="1" stop-color="#32d4f5" stop-opacity="1"/>
		</linearGradient>
	</defs>
	<g>
		<title>Page-1</title>
		<g id="group2207-1" transform="translate(34,-34.0157)">
			<title>Preview Feature</title>
			<g id="group2208-2">
				<title>Sheet.2208</title>
				<g id="shape2209-3" transform="translate(31.3134,-31.3102)">
					<title>Sheet.2209</title>
					<path d="M12.69 124.71 a0.944882 0.944882 0 0 1 -0.944882 -0.944882 A10.8094 10.8094 -180 0 0 0.94 112.96 a0.944882
								 0.944882 0 0 1 -0.944882 -0.944882 a0.944882 0.944882 0 0 1 0.944882 -0.944882 A10.8094 10.8094
								 -180 0 0 11.74 100.27 a0.944882 0.944882 0 0 1 0.944882 -0.944882 a0.944882 0.944882 0 0 1 0.944882
								 0.944882 A10.8094 10.8094 -180 0 0 24.43 111.07 a0.944882 0.944882 0 1 1 0 1.88976 A10.8094 10.8094
								 -180 0 0 13.64 123.76 a0.944882 0.944882 0 0 1 -0.948031 0.951181 Z" class="st1"/>
				</g>
				<g id="shape2210-5" transform="translate(0,-31.3102)">
					<title>Sheet.2210</title>
					<path d="M0 122.82 A1.88981 1.88981 -180 0 0 1.89 124.71 L23.49 124.71 A1.88981 1.88981 -180 0 0 25.38 122.82
								 L25.38 101.22 A1.88981 1.88981 -180 0 0 23.49 99.33 L1.89 99.33 A1.88981 1.88981 -180 0 0 -0 101.22
								 L0 122.82 Z" class="st2"/>
				</g>
				<g id="shape2211-9">
					<title>Sheet.2211</title>
					<path d="M0 122.82 A1.88981 1.88981 -180 0 0 1.89 124.71 L23.49 124.71 A1.88981 1.88981 -180 0 0 25.38 122.82
								 L25.38 101.22 A1.88981 1.88981 -180 0 0 23.49 99.33 L1.89 99.33 A1.88981 1.88981 -180 0 0 -0 101.22
								 L0 122.82 Z" class="st3"/>
				</g>
				<g id="shape2212-13" transform="translate(31.3102,1.42109E-14)">
					<title>Sheet.2212</title>
					<path d="M0 122.82 A1.88981 1.88981 -180 0 0 1.89 124.71 L23.49 124.71 A1.88981 1.88981 -180 0 0 25.38 122.82
								 L25.38 101.22 A1.88981 1.88981 -180 0 0 23.49 99.33 L1.89 99.33 A1.88981 1.88981 -180 0 0 -0 101.22
								 L0 122.82 Z" class="st4"/>
				</g>
				<g id="shape2213-17" transform="translate(2.96063,-2.96378)">
					<title>Sheet.2213</title>
					<path d="M17.56 93.4 L1.9 93.4 A1.88976 1.88976 0 0 1 0.01 91.51 L0.01 75.83 A1.88976 1.88976 0 0 1 1.9 73.94
								 L17.56 73.94 A1.88976 1.88976 0 0 1 19.45 75.83 L19.45 91.5 A1.88976 1.88976 0 0 1 17.56 93.4 ZM19.45
								 122.81 L19.45 107.15 A1.88976 1.88976 -180 0 0 17.56 105.26 L1.89 105.26 A1.88976 1.88976 -180 0
								 0 0 107.15 L0 122.82 A1.88976 1.88976 -180 0 0 1.89 124.71 L17.56 124.71 A1.88976 1.88976 -180 0
								 0 19.46 122.81 L19.45 122.81 ZM50.77 122.81 L50.77 107.15 A1.88976 1.88976 -180 0 0 48.88 105.26
								 L33.2 105.26 A1.88976 1.88976 -180 0 0 31.31 107.15 L31.31 122.82 A1.88976 1.88976 -180 0 0 33.2
								 124.71 L48.87 124.71 A1.88976 1.88976 -180 0 0 50.77 122.81 L50.77 122.81 Z" class="st5"/>
				</g>
			</g>
		</g>
	</g>
</svg>
